public/images/logo.svg

<path d="M101.071 7.64528C100.388 7.64528 99.7639 7.68469 99.1991 7.76351C98.6342 7.84232 98.0234 7.99996 97.3666 8.23641V15.7635H93.938V4.57138H96.4799L96.9922 5.89158C97.6753 5.33986 98.3452 4.94577 99.002 4.70931C99.6589 4.47286 100.349 4.35463 101.071 4.35463V7.64528Z" fill="#3470FF"/>
<path d="M92.2985 15.6453C91.8781 15.7373 91.5037 15.803 91.1753 15.8424C90.8601 15.8818 90.4857 15.9015 90.0522 15.9015C88.7911 15.9015 87.9635 15.4943 87.5694 14.6798C87.0177 15.087 86.466 15.3957 85.9142 15.6059C85.3625 15.8161 84.7582 15.9212 84.1014 15.9212C83.5103 15.9212 82.9783 15.7964 82.5054 15.5468C82.0324 15.2972 81.6646 14.9622 81.4019 14.5419C81.1392 14.1215 81.0078 13.6617 81.0078 13.1626C81.0078 12.3218 81.218 11.6585 81.6384 11.1724C82.0719 10.6732 82.6499 10.2791 83.3723 9.99014C84.0948 9.68801 85.1917 9.32676 86.663 8.9064L87.2541 8.72906V8.65024C87.2541 7.4417 86.7024 6.83743 85.599 6.83743C85.0604 6.83743 84.4824 6.95566 83.865 7.19211C83.2476 7.42856 82.5382 7.80952 81.7369 8.33497L81.0866 5.97043C81.9799 5.45812 82.8863 5.05746 83.8058 4.76846C84.7385 4.47946 85.7238 4.33496 86.7615 4.33496C88.0226 4.33496 88.9881 4.67651 89.6581 5.35959C90.3412 6.04268 90.6827 7.21181 90.6827 8.86699V12.6108C90.6827 12.8998 90.7418 13.11 90.86 13.2414C90.9783 13.3596 91.1688 13.4187 91.4315 13.4187C91.6811 13.4187 91.9307 13.3859 92.1803 13.3202L92.2985 15.6453ZM84.4364 12.7094C84.4364 12.9721 84.5021 13.1626 84.6334 13.2808C84.7779 13.399 85.0013 13.4581 85.3034 13.4581C85.8551 13.4581 86.5054 13.2217 87.2541 12.7488V10.6601L86.9586 10.7586C85.9733 11.1133 85.3034 11.4286 84.9487 11.7044C84.6072 11.9672 84.4364 12.3021 84.4364 12.7094Z" fill="#3470FF"/>
<path d="M75.1822 16C73.5533 16 72.174 15.6847 71.0443 15.0542C69.9145 14.4105 69.0673 13.5632 68.5024 12.5123C67.9507 11.4482 67.6748 10.2923 67.6748 9.0443C67.6748 7.80949 67.9638 6.66663 68.5418 5.61573C69.1329 4.56482 70.0065 3.7241 71.1625 3.09355C72.3185 2.46301 73.7109 2.14774 75.3398 2.14774C76.8637 2.14774 78.2036 2.44331 79.3596 3.03444L78.6502 5.5172C78.1642 5.26761 77.6584 5.07057 77.133 4.92607C76.6075 4.76843 76.0098 4.68962 75.3398 4.68962C74.486 4.68962 73.7438 4.88666 73.1132 5.28075C72.4958 5.6617 72.0229 6.18716 71.6945 6.85711C71.3792 7.51392 71.2216 8.24956 71.2216 9.06401C71.2216 10.3514 71.5632 11.4088 72.2462 12.2364C72.9293 13.0509 73.908 13.4581 75.1822 13.4581C76.2725 13.4581 77.4482 13.1888 78.7093 12.6502L79.3793 15.0739C78.8407 15.3497 78.197 15.5731 77.4482 15.7438C76.6995 15.9146 75.9441 16 75.1822 16Z" fill="#3470FF"/>
<path d="M61.7834 0H65.212V15.7636H61.7834V0Z" fill="#101828"/>
<path d="M60.1439 15.6453C59.7236 15.7373 59.3492 15.803 59.0208 15.8424C58.7055 15.8818 58.3311 15.9015 57.8976 15.9015C56.6365 15.9015 55.8089 15.4943 55.4149 14.6798C54.8631 15.087 54.3114 15.3957 53.7597 15.6059C53.208 15.8161 52.6037 15.9212 51.9469 15.9212C51.3557 15.9212 50.8237 15.7964 50.3508 15.5468C49.8779 15.2972 49.5101 14.9622 49.2474 14.5419C48.9846 14.1215 48.8533 13.6617 48.8533 13.1626C48.8533 12.3218 49.0635 11.6585 49.4838 11.1724C49.9173 10.6732 50.4953 10.2791 51.2178 9.99014C51.9403 9.68801 53.0372 9.32676 54.5085 8.9064L55.0996 8.72906V8.65024C55.0996 7.4417 54.5479 6.83743 53.4444 6.83743C52.9058 6.83743 52.3278 6.95566 51.7104 7.19211C51.093 7.42856 50.3837 7.80952 49.5823 8.33497L48.9321 5.97043C49.8254 5.45812 50.7318 5.05746 51.6513 4.76846C52.584 4.47946 53.5692 4.33496 54.607 4.33496C55.8681 4.33496 56.8336 4.67651 57.5035 5.35959C58.1866 6.04268 58.5282 7.21181 58.5282 8.86699V12.6108C58.5282 12.8998 58.5873 13.11 58.7055 13.2414C58.8237 13.3596 59.0142 13.4187 59.2769 13.4187C59.5265 13.4187 59.7761 13.3859 60.0257 13.3202L60.1439 15.6453ZM52.2818 12.7094C52.2818 12.9721 52.3475 13.1626 52.4789 13.2808C52.6234 13.399 52.8467 13.4581 53.1488 13.4581C53.7006 13.4581 54.3508 13.2217 55.0996 12.7488V10.6601L54.804 10.7586C53.8188 11.1133 53.1488 11.4286 52.7942 11.7044C52.4526 11.9672 52.2818 12.3021 52.2818 12.7094Z" fill="#101828"/>
<path d="M47.6241 15.0345C47.23 15.3104 46.7571 15.5272 46.2053 15.6848C45.6667 15.8293 45.1413 15.9015 44.629 15.9015C43.2365 15.9015 42.1988 15.5994 41.5157 14.9951C40.8326 14.3777 40.491 13.4976 40.491 12.3547V6.99512H38.8162V5.55669L40.9245 4.7094L41.8704 1.69461H43.9196V4.57147H47.0723V6.99512H43.9196V11.5271C43.9196 12.2234 44.0313 12.716 44.2546 13.005C44.4779 13.294 44.8129 13.4385 45.2595 13.4385C45.8375 13.4385 46.4484 13.2677 47.092 12.9262L47.6241 15.0345Z" fill="#101828"/>
<path d="M33.1903 4.33496C34.6484 4.33496 35.6533 4.72248 36.2051 5.49752C36.7699 6.27257 37.0524 7.38915 37.0524 8.84728V15.7636H33.6238V9.28078C33.6238 8.36124 33.5121 7.72413 33.2888 7.36945C33.0786 7.01477 32.6648 6.83743 32.0474 6.83743C31.3775 6.83743 30.6944 7.06075 29.9982 7.50738V15.7636H26.5696V4.57142H29.1115L29.4661 5.49752C30.7535 4.72248 31.9949 4.33496 33.1903 4.33496Z" fill="#101828"/>
<path d="M17.0283 10.798C17.094 11.7307 17.3239 12.4204 17.718 12.867C18.1121 13.3136 18.7163 13.5369 19.5308 13.5369C20.1351 13.5369 20.6934 13.4319 21.2057 13.2217C21.7311 12.9984 22.3288 12.67 22.9988 12.2365L23.9249 14.4039C23.2287 14.9688 22.539 15.376 21.8559 15.6256C21.1728 15.8752 20.3912 16 19.5111 16C18.2106 16 17.1203 15.7504 16.2402 15.2512C15.36 14.7389 14.7032 14.0493 14.2697 13.1823C13.8493 12.3021 13.6392 11.3038 13.6392 10.1872C13.6392 8.41379 14.1383 6.99506 15.1367 5.93102C16.1351 4.86698 17.5932 4.33496 19.5111 4.33496C21.0349 4.33496 22.1909 4.74875 22.9791 5.57634C23.7804 6.39079 24.1876 7.55336 24.2008 9.06403C24.2008 9.65517 24.1154 10.2332 23.9446 10.798H17.0283ZM20.8707 8.57142C20.8838 8.4926 20.8904 8.38751 20.8904 8.25615C20.8773 7.71756 20.7328 7.31034 20.4569 7.03447C20.181 6.74547 19.8001 6.60098 19.314 6.60098C18.1581 6.60098 17.4356 7.25779 17.1466 8.57142H20.8707Z" fill="#101828"/>
<path d="M5.43843 10.8375H3.5468V15.7636H0V2.36454H5.35962C7.27752 2.36454 8.67654 2.69294 9.55667 3.34976C10.4368 3.99344 10.8769 5.0115 10.8769 6.40395C10.8769 8.21676 10.2135 9.43187 8.88672 10.0493L12.6503 15.7636H8.55174L5.43843 10.8375ZM3.5468 8.3744H5.35962C6.05584 8.3744 6.55502 8.2299 6.85716 7.9409C7.17243 7.6519 7.33006 7.20527 7.33006 6.601C7.33006 5.97045 7.179 5.51725 6.87686 5.24139C6.57472 4.96553 6.06898 4.82759 5.35962 4.82759H3.5468V8.3744Z" fill="#101828"/>
</svg>

<svg width="52" height="16" fill="none" xmlns="http://www.w3.org/2000/svg"><path d="M101.071 7.645c-.683 0-1.307.04-1.872.119a9.207 9.207 0 0 0-1.832.472v7.527h-3.429V4.572h2.542l.512 1.32c.683-.551 1.353-.945 2.01-1.182a6.064 6.064 0 0 1 2.069-.354v3.29ZM92.299 15.645c-.42.092-.795.158-1.124.197-.315.04-.69.06-1.123.06-1.26 0-2.089-.408-2.483-1.222a6.995 6.995 0 0 1-1.655.926 5.052 5.052 0 0 1-1.813.315 3.366 3.366 0 0 1-1.596-.374 2.822 2.822 0 0 1-1.103-1.005 2.553 2.553 0 0 1-.394-1.38c0-.84.21-1.504.63-1.99.434-.499 1.012-.893 1.734-1.182.723-.302 1.82-.663 3.291-1.084l.591-.177V8.65c0-1.208-.552-1.813-1.655-1.813-.539 0-1.117.119-1.734.355-.617.237-1.327.618-2.128 1.143l-.65-2.365a13.75 13.75 0 0 1 2.719-1.202 9.931 9.931 0 0 1 2.956-.433c1.26 0 2.226.342 2.896 1.025.683.683 1.025 1.852 1.025 3.507v3.744c0 .289.059.499.177.63.118.119.309.178.572.178.25 0 .499-.033.748-.099l.118 2.325Zm-7.863-2.936c0 .263.066.454.197.572.145.118.368.177.67.177.552 0 1.202-.236 1.951-.71V10.66l-.295.099c-.986.354-1.656.67-2.01.945-.342.263-.513.598-.513 1.005ZM75.182 16c-1.629 0-3.008-.315-4.138-.946-1.13-.643-1.977-1.49-2.542-2.542a7.422 7.422 0 0 1-.827-3.468c0-1.235.289-2.377.867-3.428.59-1.051 1.465-1.892 2.62-2.522 1.156-.631 2.549-.946 4.178-.946 1.524 0 2.864.295 4.02.886l-.71 2.483a7.896 7.896 0 0 0-1.517-.59c-.525-.159-1.123-.237-1.793-.237-.854 0-1.596.197-2.227.59a3.75 3.75 0 0 0-1.418 1.577c-.316.657-.473 1.393-.473 2.207 0 1.287.341 2.345 1.024 3.172.683.815 1.662 1.222 2.936 1.222 1.09 0 2.266-.27 3.527-.808l.67 2.424c-.538.276-1.182.5-1.93.67-.75.17-1.505.256-2.267.256Z" fill="#3470FF"/><path d="M61.784 0h3.428v15.764h-3.428V0ZM60.144 15.645c-.42.092-.795.158-1.123.197-.316.04-.69.06-1.123.06-1.262 0-2.09-.408-2.483-1.222a7 7 0 0 1-1.655.926 5.052 5.052 0 0 1-1.813.315 3.366 3.366 0 0 1-1.596-.374 2.822 2.822 0 0 1-1.104-1.005 2.552 2.552 0 0 1-.394-1.38c0-.84.21-1.504.63-1.99.434-.499 1.012-.893 1.735-1.182.722-.302 1.82-.663 3.29-1.084l.592-.177V8.65c0-1.208-.552-1.813-1.656-1.813-.538 0-1.116.119-1.734.355-.617.237-1.326.618-2.128 1.143l-.65-2.365a13.75 13.75 0 0 1 2.72-1.202 9.93 9.93 0 0 1 2.955-.433c1.261 0 2.227.342 2.897 1.025.683.683 1.024 1.852 1.024 3.507v3.744c0 .289.06.499.178.63.118.119.308.178.57.178.25 0 .5-.033.75-.099l.118 2.325Zm-7.862-2.936c0 .263.066.454.197.572.144.118.368.177.67.177.552 0 1.202-.236 1.95-.71V10.66l-.295.099c-.985.354-1.655.67-2.01.945-.341.263-.512.598-.512 1.005ZM47.624 15.034a4.71 4.71 0 0 1-1.419.65 6.07 6.07 0 0 1-1.576.218c-1.392 0-2.43-.303-3.113-.907-.683-.617-1.025-1.497-1.025-2.64v-5.36h-1.675V5.557l2.109-.848.946-3.014h2.049V4.57h3.152v2.424H43.92v4.532c0 .696.111 1.189.335 1.478.223.289.558.433 1.005.433.578 0 1.189-.17 1.832-.512l.532 2.108ZM33.19 4.335c1.458 0 2.463.387 3.015 1.163.565.775.847 1.891.847 3.35v6.916h-3.428V9.28c0-.92-.112-1.557-.335-1.912-.21-.354-.624-.532-1.242-.532-.67 0-1.353.224-2.049.67v8.257H26.57V4.57h2.541l.355.927c1.287-.776 2.529-1.163 3.724-1.163ZM17.028 10.798c.066.933.296 1.622.69 2.069.394.447.998.67 1.813.67a4.37 4.37 0 0 0 1.675-.315c.525-.224 1.123-.552 1.793-.986l.926 2.168c-.696.565-1.386.972-2.07 1.222-.682.25-1.464.374-2.344.374-1.3 0-2.39-.25-3.27-.749-.881-.512-1.538-1.202-1.971-2.069-.42-.88-.63-1.878-.63-2.995 0-1.773.498-3.192 1.497-4.256.998-1.064 2.456-1.596 4.374-1.596 1.524 0 2.68.414 3.468 1.241.801.815 1.209 1.977 1.222 3.488 0 .591-.086 1.17-.256 1.734h-6.917Zm3.843-2.227c.013-.078.02-.183.02-.315-.014-.538-.158-.946-.434-1.222-.276-.289-.657-.433-1.143-.433-1.156 0-1.878.657-2.167 1.97h3.724ZM5.438 10.838H3.547v4.926H0v-13.4h5.36c1.918 0 3.317.329 4.197.986.88.643 1.32 1.661 1.32 3.054 0 1.813-.664 3.028-1.99 3.645l3.763 5.715H8.552l-3.114-4.926ZM3.547 8.373H5.36c.696 0 1.195-.144 1.497-.433.315-.29.473-.736.473-1.34 0-.63-.151-1.084-.453-1.36-.302-.275-.808-.413-1.517-.413H3.547v3.546Z" fill="#101828"/></svg>
